layouts/icon-pack/drink_beer.svg

<?xml version="1.0" encoding="UTF-8"?>
<svg width="1200pt" height="1200pt" version="1.1" viewBox="0 0 1200 1200" xmlns="http://www.w3.org/2000/svg">
 <path d="m763.88 531.38-60.961-81.238c-4.9062-6.8984-4.7891-13.055-4.7891-18.277 0-4.0547 1.7656-9.8047 3.6602-17.09 3.7695-14.52 9.0703-34.391 9.0703-64.367 0-38.953-25.246-158.55-33.742-197.59 2.9141-1.6094 5.5078-3.8633 7.4297-6.707 3.9492-5.8555 4.7539-11.16 2.1133-17.711l-4.2109-8.3984h4.1875c4.0664 0 9.3945-2.5781 11.617-6 2.2188-3.4219 0.99609-10.367-0.67187-14.09l-13.008-25.465c-4.875-10.855-15.734-14.445-27.648-14.445h-89.859c-11.914 0-22.766 3.5898-27.648 14.449l-13.008 25.465c-1.668 3.7188-2.6289 10.414-0.42187 13.836 2.2109 3.418 7.3008 6.25 11.367 6.25h4.1875l-4.2227 8.3984c-2.6406 6.5508-1.8359 11.844 2.1133 17.711 1.9219 2.8438 4.5117 5.1133 7.4297 6.707-8.4961 39.035-33.742 158.64-33.742 197.59 0 29.977 5.3047 49.848 9.0703 64.367 1.8828 7.2734 3.6602 13.031 3.6602 17.09 0 5.2305 0.12109 11.375-4.7891 18.277l-60.961 81.238c-13.551 19.43-16.105 33.914-16.105 55.719v487.99c0 31.414 21.277 64.906 52.703 64.906h230.59c31.426 0 52.703-33.492 52.703-64.906v-487.99c0-21.805-2.5547-36.289-16.117-55.719z" fill="#fff"/>
</svg>

<?xml version="1.0" encoding="UTF-8" standalone="no"?>
<!DOCTYPE svg PUBLIC "-//W3C//DTD SVG 1.1//EN" "http://www.w3.org/Graphics/SVG/1.1/DTD/svg11.dtd">
<svg width="100%" height="100%" viewBox="0 0 160 512" version="1.1" xmlns="http://www.w3.org/2000/svg" xmlns:xlink="http://www.w3.org/1999/xlink" xml:space="preserve" xmlns:serif="http://www.serif.com/" style="fill-rule:evenodd;clip-rule:evenodd;stroke-linejoin:round;stroke-miterlimit:2;">
    <g transform="matrix(1,0,0,1,-443.998,-60.0016)">
        <g transform="matrix(0.474077,0,0,0.474077,233.509,31.5562)">
            <path d="M763.88,531.38L702.919,450.142C698.013,443.244 698.13,437.087 698.13,431.865C698.13,427.81 699.896,422.06 701.79,414.775C705.56,400.255 710.86,380.384 710.86,350.408C710.86,311.455 685.614,191.858 677.118,152.818C680.033,151.209 682.626,148.955 684.548,146.111C688.497,140.256 689.302,134.951 686.661,128.4L682.451,120.002L686.638,120.002C690.704,120.002 696.033,117.424 698.255,114.002C700.474,110.58 699.251,103.635 697.583,99.912L684.575,74.447C679.7,63.592 668.841,60.002 656.927,60.002L567.068,60.002C555.154,60.002 544.302,63.591 539.42,74.451L526.412,99.916C524.744,103.634 523.783,110.33 525.99,113.752C528.201,117.17 533.291,120.002 537.357,120.002L541.545,120.002L537.322,128.4C534.681,134.951 535.486,140.244 539.435,146.111C541.357,148.955 543.947,151.224 546.865,152.818C538.369,191.853 513.123,311.458 513.123,350.408C513.123,380.385 518.428,400.256 522.193,414.775C524.076,422.048 525.854,427.806 525.854,431.865C525.854,437.096 525.975,443.24 521.064,450.142L460.103,531.38C446.552,550.81 443.998,565.294 443.998,587.099L443.998,1075.09C443.998,1106.5 465.275,1140 496.701,1140L727.291,1140C758.717,1140 779.994,1106.5 779.994,1075.09L779.994,587.099C779.994,565.294 777.44,550.81 763.877,531.38L763.88,531.38Z" style="fill:white;fill-rule:nonzero;"/>
        </g>
    </g>
</svg>
